Newaita-dark/actions/22/task-new.svg

<svg height="22" viewBox="0 0 22 22" width="22" xmlns="http://www.w3.org/2000/svg"><g fill="#e0e0e0"><path d="m3.636719 1.992188c-1.007813 0-1.816407.808593-1.816407 1.816406v14.554687c0 1.007813.808594 1.820313 1.816407 1.820313h8.1875v-1.820313h-7.277344c-.503906 0-.910156-.40625-.910156-.910156v-12.734375c0-.503906.40625-.910156.910156-.910156h12.734375c.503906 0 .910156.40625.910156.910156v7.277344h1.820313v-8.1875c0-1.007813-.8125-1.816406-1.820313-1.816406zm0 0"/><path d="m15.464844 4.71875c.5 0 .90625.410156.90625.910156 0 .503906-.40625.910156-.90625.910156-.503906 0-.910156-.40625-.910156-.910156 0-.5.40625-.910156.910156-.910156zm0 0"/><path d="m2.730469 7.449219h16.371093v.910156h-16.371093zm0 0"/><path d="m6.367188 4.71875c.503906 0 .910156.410156.910156.910156 0 .503906-.40625.910156-.910156.910156-.503907 0-.910157-.40625-.910157-.910156 0-.5.40625-.910156.910157-.910156zm0 0"/><path d="m14.097656 16.089844h5.457032c.253906 0 .457031.203125.457031.453125v.910156c0 .253906-.203125.457031-.457031.457031h-5.457032c-.25 0-.453125-.203125-.453125-.457031v-.910156c0-.25.203125-.453125.453125-.453125zm0 0"/><path d="m17.738281 14.269531v5.457031c0 .253907-.203125.457032-.457031.457032h-.910156c-.25 0-.453125-.203125-.453125-.457032v-5.457031c0-.25.203125-.453125.453125-.453125h.910156c.253906 0 .457031.203125.457031.453125zm0 0"/><path d="m15.027344 10.15625c-.15625-.003906-.304688.066406-.394532.191406l-3.796874 5.0625-2.347657-1.957031c-.128906-.109375-.308593-.144531-.46875-.085937-.160156.058593-.277343.199218-.304687.367187s.039062.335937.167968.445313l2.730469 2.273437c.097657.082031.226563.121094.355469.105469s.246094-.082032.324219-.1875l4.09375-5.457032c.105469-.140624.128906-.328124.050781-.488281-.074219-.160156-.234375-.265625-.410156-.269531zm0 0"/></g></svg>

<svg xmlns="http://www.w3.org/2000/svg" xmlns:xlink="http://www.w3.org/1999/xlink" width="22px" height="22px" viewBox="0 0 22 22" version="1.1">
<g id="surface1">
     <defs>
  <style id="current-color-scheme" type="text/css">
   .ColorScheme-Text { color:#eeeeee; } .ColorScheme-Highlight { color:#424242; }
  </style>
 </defs>
<path style="fill:currentColor" class="ColorScheme-Text" d="M 3.636719 1.992188 C 2.628906 1.992188 1.820312 2.800781 1.820312 3.808594 L 1.820312 18.363281 C 1.820312 19.371094 2.628906 20.183594 3.636719 20.183594 L 11.824219 20.183594 L 11.824219 18.363281 L 4.546875 18.363281 C 4.042969 18.363281 3.636719 17.957031 3.636719 17.453125 L 3.636719 4.71875 C 3.636719 4.214844 4.042969 3.808594 4.546875 3.808594 L 17.28125 3.808594 C 17.785156 3.808594 18.191406 4.214844 18.191406 4.71875 L 18.191406 11.996094 L 20.011719 11.996094 L 20.011719 3.808594 C 20.011719 2.800781 19.199219 1.992188 18.191406 1.992188 Z M 3.636719 1.992188 "/>
     <defs>
  <style id="current-color-scheme" type="text/css">
   .ColorScheme-Text { color:#eeeeee; } .ColorScheme-Highlight { color:#424242; }
  </style>
 </defs>
<path style="fill:currentColor" class="ColorScheme-Text" d="M 15.464844 4.71875 C 15.964844 4.71875 16.371094 5.128906 16.371094 5.628906 C 16.371094 6.132812 15.964844 6.539062 15.464844 6.539062 C 14.960938 6.539062 14.554688 6.132812 14.554688 5.628906 C 14.554688 5.128906 14.960938 4.71875 15.464844 4.71875 Z M 15.464844 4.71875 "/>
     <defs>
  <style id="current-color-scheme" type="text/css">
   .ColorScheme-Text { color:#eeeeee; } .ColorScheme-Highlight { color:#424242; }
  </style>
 </defs>
<path style="fill:currentColor" class="ColorScheme-Text" d="M 2.730469 7.449219 L 19.101562 7.449219 L 19.101562 8.359375 L 2.730469 8.359375 Z M 2.730469 7.449219 "/>
     <defs>
  <style id="current-color-scheme" type="text/css">
   .ColorScheme-Text { color:#eeeeee; } .ColorScheme-Highlight { color:#424242; }
  </style>
 </defs>
<path style="fill:currentColor" class="ColorScheme-Text" d="M 6.367188 4.71875 C 6.871094 4.71875 7.277344 5.128906 7.277344 5.628906 C 7.277344 6.132812 6.871094 6.539062 6.367188 6.539062 C 5.863281 6.539062 5.457031 6.132812 5.457031 5.628906 C 5.457031 5.128906 5.863281 4.71875 6.367188 4.71875 Z M 6.367188 4.71875 "/>
     <defs>
  <style id="current-color-scheme" type="text/css">
   .ColorScheme-Text { color:#eeeeee; } .ColorScheme-Highlight { color:#424242; }
  </style>
 </defs>
<path style="fill:currentColor" class="ColorScheme-Text" d="M 14.097656 16.089844 L 19.554688 16.089844 C 19.808594 16.089844 20.011719 16.292969 20.011719 16.542969 L 20.011719 17.453125 C 20.011719 17.707031 19.808594 17.910156 19.554688 17.910156 L 14.097656 17.910156 C 13.847656 17.910156 13.644531 17.707031 13.644531 17.453125 L 13.644531 16.542969 C 13.644531 16.292969 13.847656 16.089844 14.097656 16.089844 Z M 14.097656 16.089844 "/>
     <defs>
  <style id="current-color-scheme" type="text/css">
   .ColorScheme-Text { color:#eeeeee; } .ColorScheme-Highlight { color:#424242; }
  </style>
 </defs>
<path style="fill:currentColor" class="ColorScheme-Text" d="M 17.738281 14.269531 L 17.738281 19.726562 C 17.738281 19.980469 17.535156 20.183594 17.28125 20.183594 L 16.371094 20.183594 C 16.121094 20.183594 15.917969 19.980469 15.917969 19.726562 L 15.917969 14.269531 C 15.917969 14.019531 16.121094 13.816406 16.371094 13.816406 L 17.28125 13.816406 C 17.535156 13.816406 17.738281 14.019531 17.738281 14.269531 Z M 17.738281 14.269531 "/>
     <defs>
  <style id="current-color-scheme" type="text/css">
   .ColorScheme-Text { color:#eeeeee; } .ColorScheme-Highlight { color:#424242; }
  </style>
 </defs>
<path style="fill:currentColor" class="ColorScheme-Text" d="M 15.027344 10.15625 C 14.871094 10.152344 14.722656 10.222656 14.632812 10.347656 L 10.835938 15.410156 L 8.488281 13.453125 C 8.359375 13.34375 8.179688 13.308594 8.019531 13.367188 C 7.859375 13.425781 7.742188 13.566406 7.714844 13.734375 C 7.6875 13.902344 7.753906 14.070312 7.882812 14.179688 L 10.613281 16.453125 C 10.710938 16.535156 10.839844 16.574219 10.96875 16.558594 C 11.097656 16.542969 11.214844 16.476562 11.292969 16.371094 L 15.386719 10.914062 C 15.492188 10.773438 15.515625 10.585938 15.4375 10.425781 C 15.363281 10.265625 15.203125 10.160156 15.027344 10.15625 Z M 15.027344 10.15625 "/>
</g>
</svg>
